symbols/web/iron/materialsymbolssharp/iron_wght500gradN25fill1_48px.svg

<svg xmlns="http://www.w3.org/2000/svg" height="48" width="48"><path d="M3.75 36.2v-6.05q0-3.4 2.375-5.775Q8.5 22 11.9 22h18.8v-4.95H17.05v2.45H13.7v-5.75H34v14.5h3.1v-16.5h7.15v3.3H40.4v16.5H34v4.65Z"/></svg>

<svg xmlns="http://www.w3.org/2000/svg" height="48" width="48"><path d="M3.75 36.2V30.15Q3.75 26.75 6.125 24.375Q8.5 22 11.9 22H30.7V17.05H17.05V19.5H13.7V13.75H34V28.25H37.1V11.75H44.25V15.05H40.4V31.55H34V36.2Z"/></svg>
